www/assets/icons/loop.svg

<svg xmlns="http://www.w3.org/2000/svg" width="24" height="24" viewBox="0 0 24 24" fill='currentColor'><path d="M12 4V1L8 5l4 4V6c3.31 0 6 2.69 6 6 0 1.01-.25 1.97-.7 2.8l1.46 1.46A7.93 7.93 0 0 0 20 12c0-4.42-3.58-8-8-8m0 14c-3.31 0-6-2.69-6-6 0-1.01.25-1.97.7-2.8L5.24 7.74A7.93 7.93 0 0 0 4 12c0 4.42 3.58 8 8 8v3l4-4-4-4z"/></svg>

<svg width="24" height="24" viewBox="0 0 24 24" xmlns="http://www.w3.org/2000/svg" fill='currentColor'><path d="M12 4V1L8 5L12 9V6C15.31 6 18 8.69 18 12C18 13.01 17.75 13.97 17.3 14.8L18.76 16.26C19.54 15.03 20 13.57 20 12C20 7.58 16.42 4 12 4ZM12 18C8.69 18 6 15.31 6 12C6 10.99 6.25 10.03 6.7 9.2L5.24 7.74C4.46 8.97 4 10.43 4 12C4 16.42 7.58 20 12 20V23L16 19L12 15V18Z"/></svg>
